ui5con/germany2022/images/sponsors/advades_logo.svg

<svg xmlns="http://www.w3.org/2000/svg" viewBox="0 0 179 50">
  <path d="M146.32 31.59c0 4.07 3.09 6.35 8.06 6.35 4.36 0 7.91-1.49 7.91-5.63 0-3.41-2.54-4.21-5.63-5.15-2.98-.91-4.46-1.2-4.46-2.47 0-1.05.94-1.56 2.07-1.56 1.52 0 2.29.83 2.29 2.29h5.48c0-3.34-2.47-5.92-7.55-5.92-4.72 0-7.73 1.71-7.73 5.33 0 3.38 2.54 4.14 5.41 5.12 3.3 1.13 4.68 1.27 4.68 2.61 0 1.16-.94 1.63-2.29 1.63-1.63 0-2.79-.73-2.79-2.58l-5.45-.02zm-11.65-8.17c2.1 0 3.59 1.34 3.59 3.59H131c0-2.35 1.56-3.59 3.67-3.59m3.37 8.53c-.4 1.13-1.31 2-3.23 2-2.83 0-3.81-1.78-3.81-3.88h12.52c.18-1.05.18-1.85.18-2.58 0-4.28-3.52-7.98-9-7.98-6.06 0-9.29 4.1-9.29 9.22 0 5.15 3.3 9.22 9.44 9.22 5.01 0 8.06-2.69 8.64-5.99h-5.45zm-21.78-9.47c-.83-1.6-3.08-2.94-5.33-2.94-5.04 0-8.53 3.96-8.53 9.18 0 5.23 3.48 9.18 8.53 9.18 2.25 0 4.5-1.31 5.33-2.9v2.47h5.55V12.06h-5.55v10.42zm-4.17 10.7c-2.5 0-4.17-2.03-4.17-4.46 0-2.4 1.67-4.46 4.17-4.46 2.51 0 4.17 2.07 4.17 4.46 0 2.43-1.66 4.46-4.17 4.46m-18.87-10.7c-.83-1.6-3.08-2.94-5.34-2.94-5.04 0-8.53 3.96-8.53 9.18 0 5.23 3.48 9.18 8.53 9.18 2.25 0 4.5-1.31 5.34-2.9v2.47h5.55v-17.5h-5.55v2.51zm-4.18 10.7c-2.5 0-4.17-2.03-4.17-4.46 0-2.4 1.67-4.46 4.17-4.46s4.17 2.07 4.17 4.46c.01 2.43-1.66 4.46-4.17 4.46M58.92 19.97l7.8 17.49h4.43l7.91-17.49h-5.81l-4.28 11-4.25-11h-5.8zm-8.38 2.51c-.83-1.6-3.08-2.94-5.33-2.94-5.05 0-8.53 3.96-8.53 9.18 0 5.23 3.48 9.18 8.53 9.18 2.25 0 4.5-1.31 5.33-2.9v2.47h5.55V12.06h-5.55v10.42zm-4.18 10.7c-2.5 0-4.17-2.03-4.17-4.46 0-2.4 1.67-4.46 4.17-4.46 2.51 0 4.17 2.07 4.17 4.46.01 2.43-1.66 4.46-4.17 4.46m-18.83-10.7c-.84-1.6-3.09-2.94-5.34-2.94-5.05 0-8.53 3.96-8.53 9.18 0 5.23 3.48 9.18 8.53 9.18 2.25 0 4.5-1.31 5.34-2.9v2.47h5.55v-17.5h-5.55v2.51zm-4.17 10.7c-2.5 0-4.17-2.03-4.17-4.46 0-2.4 1.67-4.46 4.17-4.46s4.17 2.07 4.17 4.46c0 2.43-1.67 4.46-4.17 4.46" style="fill:#13a538"/>
</svg>

<?xml version="1.0" encoding="UTF-8" standalone="no"?>
<!DOCTYPE svg PUBLIC "-//W3C//DTD SVG 1.1//EN" "http://www.w3.org/Graphics/SVG/1.1/DTD/svg11.dtd">
<svg width="100%" height="100%" viewBox="0 0 158 33" version="1.1" xmlns="http://www.w3.org/2000/svg" xmlns:xlink="http://www.w3.org/1999/xlink" xml:space="preserve" xmlns:serif="http://www.serif.com/" style="fill-rule:evenodd;clip-rule:evenodd;stroke-linejoin:round;stroke-miterlimit:2;">
    <g transform="matrix(1,0,0,1,-9,-9)">
        <path d="M146.32,31.59C146.32,35.66 149.41,37.94 154.38,37.94C158.74,37.94 162.29,36.45 162.29,32.31C162.29,28.9 159.75,28.1 156.66,27.16C153.68,26.25 152.2,25.96 152.2,24.69C152.2,23.64 153.14,23.13 154.27,23.13C155.79,23.13 156.56,23.96 156.56,25.42L162.04,25.42C162.04,22.08 159.57,19.5 154.49,19.5C149.77,19.5 146.76,21.21 146.76,24.83C146.76,28.21 149.3,28.97 152.17,29.95C155.47,31.08 156.85,31.22 156.85,32.56C156.85,33.72 155.91,34.19 154.56,34.19C152.93,34.19 151.77,33.46 151.77,31.61L146.32,31.59ZM134.67,23.42C136.77,23.42 138.26,24.76 138.26,27.01L131,27.01C131,24.66 132.56,23.42 134.67,23.42M138.04,31.95C137.64,33.08 136.73,33.95 134.81,33.95C131.98,33.95 131,32.17 131,30.07L143.52,30.07C143.7,29.02 143.7,28.22 143.7,27.49C143.7,23.21 140.18,19.51 134.7,19.51C128.64,19.51 125.41,23.61 125.41,28.73C125.41,33.88 128.71,37.95 134.85,37.95C139.86,37.95 142.91,35.26 143.49,31.96L138.04,31.96L138.04,31.95ZM116.26,22.48C115.43,20.88 113.18,19.54 110.93,19.54C105.89,19.54 102.4,23.5 102.4,28.72C102.4,33.95 105.88,37.9 110.93,37.9C113.18,37.9 115.43,36.59 116.26,35L116.26,37.47L121.81,37.47L121.81,12.06L116.26,12.06L116.26,22.48ZM112.09,33.18C109.59,33.18 107.92,31.15 107.92,28.72C107.92,26.32 109.59,24.26 112.09,24.26C114.6,24.26 116.26,26.33 116.26,28.72C116.26,31.15 114.6,33.18 112.09,33.18M93.22,22.48C92.39,20.88 90.14,19.54 87.88,19.54C82.84,19.54 79.35,23.5 79.35,28.72C79.35,33.95 82.83,37.9 87.88,37.9C90.13,37.9 92.38,36.59 93.22,35L93.22,37.47L98.77,37.47L98.77,19.97L93.22,19.97L93.22,22.48ZM89.04,33.18C86.54,33.18 84.87,31.15 84.87,28.72C84.87,26.32 86.54,24.26 89.04,24.26C91.54,24.26 93.21,26.33 93.21,28.72C93.22,31.15 91.55,33.18 89.04,33.18M58.92,19.97L66.72,37.46L71.15,37.46L79.06,19.97L73.25,19.97L68.97,30.97L64.72,19.97L58.92,19.97ZM50.54,22.48C49.71,20.88 47.46,19.54 45.21,19.54C40.16,19.54 36.68,23.5 36.68,28.72C36.68,33.95 40.16,37.9 45.21,37.9C47.46,37.9 49.71,36.59 50.54,35L50.54,37.47L56.09,37.47L56.09,12.06L50.54,12.06L50.54,22.48ZM46.36,33.18C43.86,33.18 42.19,31.15 42.19,28.72C42.19,26.32 43.86,24.26 46.36,24.26C48.87,24.26 50.53,26.33 50.53,28.72C50.54,31.15 48.87,33.18 46.36,33.18M27.53,22.48C26.69,20.88 24.44,19.54 22.19,19.54C17.14,19.54 13.66,23.5 13.66,28.72C13.66,33.95 17.14,37.9 22.19,37.9C24.44,37.9 26.69,36.59 27.53,35L27.53,37.47L33.08,37.47L33.08,19.97L27.53,19.97L27.53,22.48ZM23.36,33.18C20.86,33.18 19.19,31.15 19.19,28.72C19.19,26.32 20.86,24.26 23.36,24.26C25.86,24.26 27.53,26.33 27.53,28.72C27.53,31.15 25.86,33.18 23.36,33.18" style="fill:rgb(19,165,56);fill-rule:nonzero;"/>
    </g>
</svg>
